icons/evolvere-blue-folders-flat-vivid-dark-fallback/apps/64/preferences.svg

<?xml version="1.0" encoding="UTF-8" standalone="no"?>
<!-- Created with Inkscape (http://www.inkscape.org/) -->

<svg
   xmlns:dc="http://purl.org/dc/elements/1.1/"
   xmlns:cc="http://creativecommons.org/ns#"
   xmlns:rdf="http://www.w3.org/1999/02/22-rdf-syntax-ns#"
   xmlns:svg="http://www.w3.org/2000/svg"
   xmlns="http://www.w3.org/2000/svg"
   xmlns:xlink="http://www.w3.org/1999/xlink"
   xmlns:sodipodi="http://sodipodi.sourceforge.net/DTD/sodipodi-0.dtd"
   xmlns:inkscape="http://www.inkscape.org/namespaces/inkscape"
   width="64"
   height="64"
   id="svg13094"
   version="1.1"
   inkscape:version="0.48.4 r9939"
   sodipodi:docname="preferences.svg">
  <sodipodi:namedview
     id="base"
     pagecolor="#ffffff"
     bordercolor="#666666"
     borderopacity="1.0"
     inkscape:pageopacity="0"
     inkscape:pageshadow="2"
     inkscape:zoom="11.313709"
     inkscape:cx="34.376838"
     inkscape:cy="32.09603"
     inkscape:document-units="px"
     inkscape:current-layer="svg13094"
     showgrid="true"
     inkscape:snap-bbox="true"
     inkscape:bbox-paths="true"
     inkscape:bbox-nodes="true"
     inkscape:snap-bbox-edge-midpoints="true"
     inkscape:snap-bbox-midpoints="true"
     inkscape:object-paths="true"
     inkscape:snap-intersection-paths="true"
     inkscape:object-nodes="true"
     inkscape:snap-smooth-nodes="true"
     inkscape:snap-midpoints="true"
     inkscape:snap-object-midpoints="true"
     inkscape:snap-center="true"
     showguides="false"
     inkscape:guide-bbox="true"
     inkscape:window-width="1920"
     inkscape:window-height="1025"
     inkscape:window-x="-2"
     inkscape:window-y="32"
     inkscape:window-maximized="1"
     inkscape:snap-global="true"
     fit-margin-top="0"
     fit-margin-left="0"
     fit-margin-right="0"
     fit-margin-bottom="0"
     showborder="true"
     inkscape:showpageshadow="false"
     inkscape:snap-page="true">
    <inkscape:grid
       type="xygrid"
       id="grid3075"
       empspacing="5"
       visible="true"
       enabled="true"
       snapvisiblegridlinesonly="true"
       originx="1.6362304e-08px"
       originy="18px" />
    <sodipodi:guide
       orientation="0,1"
       position="-11,30"
       id="guide9148" />
    <sodipodi:guide
       orientation="1,0"
       position="32,70"
       id="guide9150" />
  </sodipodi:namedview>
  <defs
     id="defs13096" />
  <metadata
     id="metadata13099">
    <rdf:RDF>
      <cc:Work
         rdf:about="">
        <dc:format>image/svg+xml</dc:format>
        <dc:type
           rdf:resource="http://purl.org/dc/dcmitype/StillImage" />
        <dc:title />
      </cc:Work>
    </rdf:RDF>
  </metadata>
  <path
     id="path6538"
     d="m 0,4 0,30 0,28 2,2 30,0 30,0 2,-2 L 64,34 64,4 32,4 0,4 z"
     style="color:#000000;fill:#aeb4c3;fill-opacity:1;fill-rule:nonzero;stroke:none;stroke-width:2.28571415000000000;marker:none;visibility:visible;display:inline;overflow:visible;enable-background:accumulate"
     inkscape:connector-curvature="0" />
  <path
     inkscape:connector-curvature="0"
     style="color:#000000;fill:#e7ecf0;fill-opacity:1;fill-rule:nonzero;stroke:none;marker:none;visibility:visible;display:inline;overflow:visible;enable-background:accumulate"
     d="M 2,0 0,1 0,4 19.5625,4 39.125,4 64,4 64,1 62,0 39.125,0 19.5625,0 2,0 z"
     id="path6688" />
  <g
     id="g3043"
     inkscape:export-filename="folder.png"
     inkscape:export-xdpi="90"
     inkscape:export-ydpi="90"
     transform="translate(-0.62500009,0.082283)" />
  <g
     id="scalable"
     transform="matrix(1.0385892,0,0,1.0385892,1214.7222,1878.8121)"
     inkscape:label="#g3701"
     style="fill:#ffffff" />
  <path
     style="fill:#f2f5f7;fill-opacity:1;fill-rule:nonzero;stroke-width:1;stroke-linecap:butt;stroke-linejoin:miter;stroke-miterlimit:4;stroke-opacity:1;stroke-dasharray:none;stroke-dashoffset:0"
     d="M 0,3 0,6 2,4 z"
     id="path4298"
     inkscape:connector-curvature="0"
     sodipodi:nodetypes="cccc" />
  <path
     inkscape:connector-curvature="0"
     style="fill:#ccd1db;fill-opacity:1;stroke:none;stroke-width:1;marker:none"
     id="path3028"
     d="M 64,6 62,4 64,3 z" />
  <g
     id="g3813">
    <path
       style="color:#000000;fill:#224060;fill-opacity:1;fill-rule:nonzero;stroke:none;stroke-width:2;marker:none;visibility:visible;display:inline;overflow:visible;enable-background:accumulate"
       d="M 42 14 C 43.108 14 44 14.892 44 16 C 44 17.108 43.108 18 42 18 L 53 18 C 54.108 18 55 17.108 55 16 C 55 14.892 54.108 14 53 14 L 42 14 z "
       id="rect4415" />
    <path
       style="color:#000000;fill:#1f78ec;fill-opacity:1;fill-rule:nonzero;stroke:none;stroke-width:2.79999995000000013;marker:none;visibility:visible;display:inline;overflow:visible;enable-background:accumulate"
       d="m 11,14 31,0 c 1.108,0 2,0.892 2,2 0,1.108 -0.892,2 -2,2 L 11,18 C 9.8919999,18 9,17.108 9,16 9,14.892 9.8919999,14 11,14 z"
       id="rect4455"
       inkscape:connector-curvature="0"
       sodipodi:nodetypes="sssssss" />
    <g
       id="g4236"
       transform="translate(1,-2)">
      <rect
         inkscape:transform-center-x="-2.8284257"
         transform="matrix(0.70710678,-0.70710678,0.70710678,0.70710678,0,0)"
         inkscape:transform-center-y="2.8284263"
         ry="7"
         rx="7"
         y="37.547726"
         x="12.091883"
         height="24.041634"
         width="14"
         id="rect5301"
         style="color:#000000;fill:#00386a;fill-opacity:0.12712623;fill-rule:nonzero;stroke:none;stroke-width:2;marker:none;visibility:visible;display:inline;overflow:visible;enable-background:accumulate" />
      <path
         sodipodi:type="arc"
         style="color:#000000;fill:#3b89f0;fill-opacity:1;fill-rule:nonzero;stroke:none;stroke-width:2;marker:none;visibility:visible;display:inline;overflow:visible;enable-background:accumulate"
         id="path3821"
         sodipodi:cx="44"
         sodipodi:cy="21"
         sodipodi:rx="5"
         sodipodi:ry="5"
         d="m 49,21 c 0,2.761424 -2.238576,5 -5,5 -2.761424,0 -5,-2.238576 -5,-5 0,-2.761424 2.238576,-5 5,-5 2.761424,0 5,2.238576 5,5 z"
         transform="matrix(1.4,0,0,1.4,-16.6,-11.4)" />
    </g>
  </g>
  <g
     id="use3819"
     transform="translate(0,17)">
    <rect
       style="color:#000000;fill:#224060;fill-opacity:1;fill-rule:nonzero;stroke:none;stroke-width:2;marker:none;visibility:visible;display:inline;overflow:visible;enable-background:accumulate"
       id="rect4377"
       width="46"
       height="4"
       x="9"
       y="14"
       rx="1.9999999"
       ry="2" />
    <g
       transform="translate(-27,-2)"
       id="g4381">
      <rect
         style="color:#000000;fill:#00386a;fill-opacity:0.12712623;fill-rule:nonzero;stroke:none;stroke-width:2;marker:none;visibility:visible;display:inline;overflow:visible;enable-background:accumulate"
         id="rect4383"
         width="14"
         height="24.041634"
         x="12.091883"
         y="37.547726"
         rx="7"
         ry="7"
         inkscape:transform-center-y="2.8284263"
         transform="matrix(0.70710678,-0.70710678,0.70710678,0.70710678,0,0)"
         inkscape:transform-center-x="-2.8284257" />
      <path
         transform="matrix(1.4,0,0,1.4,-16.6,-11.4)"
         d="m 49,21 c 0,2.761424 -2.238576,5 -5,5 -2.761424,0 -5,-2.238576 -5,-5 0,-2.761424 2.238576,-5 5,-5 2.761424,0 5,2.238576 5,5 z"
         sodipodi:ry="5"
         sodipodi:rx="5"
         sodipodi:cy="21"
         sodipodi:cx="44"
         id="path4385"
         style="color:#000000;fill:#5f82ad;fill-opacity:1;fill-rule:nonzero;stroke:none;stroke-width:2;marker:none;visibility:visible;display:inline;overflow:visible;enable-background:accumulate"
         sodipodi:type="arc" />
    </g>
  </g>
  <use
     x="0"
     y="0"
     xlink:href="#g3813"
     id="use3817"
     transform="translate(0,34)"
     width="64"
     height="64" />
</svg>

<svg xmlns="http://www.w3.org/2000/svg" xmlns:xlink="http://www.w3.org/1999/xlink" viewBox="0 0 64 64"><g color="#000"><path d="m0 4v30 28l2 2h30 30l2-2v-28-30h-32-32" fill="#aeb4c3"/><path d="m2 0l-2 1v3h19.563 19.563 24.875v-3l-2-1h-22.875-19.563-17.563" fill="#e7ecf0"/></g><path d="m0 3v3l2-2z" fill="#f2f5f7"/><path d="m64 6l-2-2 2-1z" fill="#ccd1db"/><g id="0"><g color="#000"><path d="m42 14c1.108 0 2 .892 2 2 0 1.108-.892 2-2 2h11c1.108 0 2-.892 2-2 0-1.108-.892-2-2-2h-11" fill="#224060"/><path d="m11 14h31c1.108 0 2 .892 2 2 0 1.108-.892 2-2 2h-31c-1.108 0-2-.892-2-2 0-1.108.892-2 2-2" fill="#1f78ec"/></g><g transform="translate(1-2)"><rect transform="matrix(.70711-.70711.70711.70711 0 0)" rx="7" y="37.548" x="12.09" height="24.04" width="14" fill="#00386a" fill-opacity=".127" color="#000" id="1"/><path d="m49 21c0 2.761-2.239 5-5 5-2.761 0-5-2.239-5-5 0-2.761 2.239-5 5-5 2.761 0 5 2.239 5 5" transform="matrix(1.4 0 0 1.4-16.6-11.4)" fill="#3b89f0" color="#000"/></g></g><g transform="translate(0 17)"><rect width="46" height="4" x="9" y="14" rx="2" fill="#224060" color="#000"/><g transform="translate(-27-2)"><use xlink:href="#1"/><path transform="matrix(1.4 0 0 1.4-16.6-11.4)" d="m49 21c0 2.761-2.239 5-5 5-2.761 0-5-2.239-5-5 0-2.761 2.239-5 5-5 2.761 0 5 2.239 5 5" fill="#5f82ad" color="#000"/></g></g><use xlink:href="#0" transform="translate(0 34)" width="64" height="64"/></svg>
